X: 12540
T: Farewell To Leitrim
R: reel
M: 4/4
K: Dmixolydian
d2 AG FDDF|Eccc Eccc|(3dcB (3cBA BcAG|(3FGA EF Dgfe|
d2 AG FDDF|(3EFG AB c2 Bc|(3dcB (3cBA BcAG|1 (3FGA EG FD D2:|2 (3FGA EG FDDg||
fddd fdad|fddd (3Bcd eg|fddd fdag|faeg fdde|
fddd addd|eccc gccc|(3agf (3gfe fged|^ceaf g2||

